X:0112
T:Nancy Dawson
M:6/8
L:1/8
Q:3/8=120
I: :: ::
Z:Jack Campin * www.campin.me.uk * 2009
K:G
G2G G2B|d2B G2B|A2B A2B|A2G FED|
G2G G2B|d2B G2B|A2G F2E|D3  D3:|
A2A A2B|A2G FED|B2c d2c|d2g dBG|
c2B c2d|e2f gfe|dcB AGF|G3  G3:|
<end>
<start>
